dist/flags/l/410.svg

<svg width="32" height="24" viewBox="0 0 32 24" fill="none" xmlns="http://www.w3.org/2000/svg">
<mask id="mask0" mask-type="alpha" maskUnits="userSpaceOnUse" x="0" y="0" width="32" height="24">
<rect width="32" height="24" fill="white"/>
</mask>
<g mask="url(#mask0)">
<path fill-rule="evenodd" clip-rule="evenodd" d="M0 0V24H32V0H0Z" fill="#F7FCFF"/>
<mask id="mask1" mask-type="alpha" maskUnits="userSpaceOnUse" x="0" y="0" width="32" height="24">
<path fill-rule="evenodd" clip-rule="evenodd" d="M0 0V24H32V0H0Z" fill="white"/>
</mask>
<g mask="url(#mask1)">
<path fill-rule="evenodd" clip-rule="evenodd" d="M16 18.2195C19.2027 18.2195 21.799 15.4623 21.799 12.061C21.799 8.65974 19.2027 5.90247 16 5.90247C12.7972 5.90247 10.2009 8.65974 10.2009 12.061C10.2009 15.4623 12.7972 18.2195 16 18.2195Z" fill="#3D58DB"/>
<mask id="mask2" mask-type="alpha" maskUnits="userSpaceOnUse" x="10" y="5" width="12" height="14">
<path fill-rule="evenodd" clip-rule="evenodd" d="M16 18.2195C19.2027 18.2195 21.799 15.4623 21.799 12.061C21.799 8.65974 19.2027 5.90247 16 5.90247C12.7972 5.90247 10.2009 8.65974 10.2009 12.061C10.2009 15.4623 12.7972 18.2195 16 18.2195Z" fill="white"/>
</mask>
<g mask="url(#mask2)">
<path fill-rule="evenodd" clip-rule="evenodd" d="M22.0019 12.5328C22.0019 12.5328 21.6764 9.6288 19.2657 9.47116C16.8551 9.31351 16.2051 11.6007 16.066 12.2067C15.9269 12.8127 15.5748 14.4292 13.0366 14.4292C10.4985 14.4292 10.2695 10.3188 10.2695 10.3188V5.47192H22.0019V12.5328Z" fill="#E31D1C"/>
</g>
<path fill-rule="evenodd" clip-rule="evenodd" d="M7.29934 2.05212L8.2143 2.87965L3.97404 7.83155L3.05908 7.00403L7.29934 2.05212ZM8.80833 3.39128L9.72329 4.21881L5.63503 9.09897L4.72007 8.27145L8.80833 3.39128ZM11.2254 5.57447L10.3104 4.74694L6.21078 9.66414L7.12575 10.4917L11.2254 5.57447Z" fill="#272727"/>
<path fill-rule="evenodd" clip-rule="evenodd" d="M25.3637 1.7052L24.4485 2.52963L26.0359 4.39246L26.9511 3.56803L25.3637 1.7052ZM28.1853 5.13184L27.2701 5.95627L28.8576 7.8191L29.7727 6.99467L28.1853 5.13184ZM21.4279 5.21282L22.3431 4.38839L23.9305 6.25122L23.0153 7.07565L21.4279 5.21282ZM25.1647 7.81503L24.2495 8.63946L25.837 10.5023L26.7521 9.67786L25.1647 7.81503ZM22.9955 3.83121L23.9107 3.00678L28.3293 8.38765L27.4141 9.21207L22.9955 3.83121Z" fill="#272727"/>
<path fill-rule="evenodd" clip-rule="evenodd" d="M26.0549 14.2432L25.1321 13.4155L23.5313 15.2856L24.4541 16.1133L26.0549 14.2432ZM23.3636 17.5342L22.4407 16.7065L20.84 18.5766L21.7628 19.4043L23.3636 17.5342ZM28.0465 16.0329L28.9693 16.8605L27.3686 18.7306L26.4457 17.903L28.0465 16.0329ZM26.4096 20.2278L25.4868 19.4002L23.886 21.2703L24.8089 22.0979L26.4096 20.2278ZM23.9665 17.9781L24.8894 18.8058L23.2184 20.8027L22.2956 19.975L23.9665 17.9781ZM27.6308 15.4783L26.708 14.6506L25.037 16.6476L25.9599 17.4752L27.6308 15.4783Z" fill="#272727"/>
<path fill-rule="evenodd" clip-rule="evenodd" d="M6.40657 14.8899L7.32178 14.0646L11.4064 18.745L10.4912 19.5703L6.40657 14.8899ZM7.35937 18.9836L8.27457 18.1582L9.99988 20.0538L9.08468 20.8791L7.35937 18.9836ZM4.30943 16.6908L3.39423 17.5162L7.50003 22.2595L8.41523 21.4342L4.30943 16.6908ZM4.96062 16.1522L5.87582 15.3269L7.37149 17.0808L6.45629 17.9061L4.96062 16.1522Z" fill="#272727"/>
</g>
</g>
</svg>

<svg width="32" height="24" fill="none" xmlns="http://www.w3.org/2000/svg">
  <g mask="url(#KR_-_Korea_(South)__a)">
    <path fill-rule="evenodd" clip-rule="evenodd" d="M0 0v24h32V0H0z" fill="#F7FCFF"/>
    <g mask="url(#KR_-_Korea_(South)__b)">
      <path fill-rule="evenodd" clip-rule="evenodd" d="M16 18.22c3.203 0 5.799-2.758 5.799-6.159S19.203 5.902 16 5.902c-3.203 0-5.8 2.758-5.8 6.159s2.597 6.159 5.8 6.159z" fill="#3D58DB"/>
      <g mask="url(#KR_-_Korea_(South)__c)">
        <path fill-rule="evenodd" clip-rule="evenodd" d="M22.002 12.533s-.326-2.904-2.736-3.062c-2.41-.158-3.06 2.13-3.2 2.736-.14.606-.491 2.222-3.03 2.222-2.537 0-2.766-4.11-2.766-4.11V5.472h11.732v7.06z" fill="#E31D1C"/>
      </g>
      <path fill-rule="evenodd" clip-rule="evenodd" d="M7.3 2.052l.914.828-4.24 4.952-.915-.828L7.3 2.052zm1.508 1.34l.915.827-4.088 4.88-.915-.828 4.088-4.88zm2.417 2.183l-.915-.828-4.1 4.917.916.828 4.1-4.917zm14.139-3.87l-.916.825 1.588 1.862.915-.824-1.587-1.863zm2.821 3.427l-.915.824 1.588 1.863.915-.824-1.588-1.863zm-6.757.08l.915-.824 1.587 1.863-.915.825-1.587-1.863zm3.737 2.603l-.915.824 1.587 1.863.915-.824-1.587-1.863zm-2.17-3.984l.916-.824 4.418 5.38-.915.825-4.419-5.38zm3.06 10.412l-.923-.828-1.6 1.87.922.828 1.6-1.87zm-2.691 3.291l-.923-.828-1.601 1.87.923.828 1.6-1.87zm4.683-1.501l.922.827-1.6 1.87-.923-.827 1.6-1.87zm-1.637 4.195l-.923-.828-1.601 1.87.923.828 1.6-1.87zm-2.444-2.25l.923.828-1.67 1.997-.923-.828 1.67-1.997zm3.665-2.5l-.923-.827-1.671 1.997.923.827 1.67-1.997zM6.407 14.89l.915-.825 4.084 4.68-.915.825-4.084-4.68zm.952 4.093l.916-.825L10 20.054l-.915.825-1.726-1.896zm-3.05-2.292l-.915.825L7.5 22.26l.915-.826-4.106-4.743zm.652-.539l.915-.825L7.37 17.08l-.915.825-1.495-1.754z" fill="#272727"/>
    </g>
  </g>
</svg>
